!!!!SEGMENT: pl-wnifc--6664-n_noskowski-zygmunt--biale-mgly-op-74-no-1.krn
!!!cenid: 18xx:3983
!!!COM: Noskowski, Zygmunt
!!!COM-rismID: pe106604
!!!CDT: 1846/05/02-1909/07/23
!!!CNT: Polish
!!!OTL: Białe mgły op. 74 No. 1
!!!PDT:
!!!AGN:
!!!YEC: Copyright 2022 Narodowy Instytut Fryderyka Chopina (https://polishscores.org)
!!!YEM: License CC-BY-4.0 (https://creativecommons.org/licenses/by/4.0)
!!!SMS-siglum: PL-Wnifc
!!!SMS-shelfmark: 6664/n
!!!SMS-shelfwork: W
!!!SMS-variant:
!!!SMS-altvar:
!!!NIFC-rismSourceID: 1001152871
!!!NIFC-rismChildID: 1001152871
!!!NIFC-islandoraID: nifc:213151
!!!URL-pdf-islandora: https://repozytorium.nifc.pl/islandora/object/nifc%3A213151/datastream/PDF/view
!!!URL-scan: https://polish.musicsources.pl/pl/lokalizacje/galeria/druki-muzyczne/16892 @EN{Scan on Polish Music Sources Website} @PL{Skany w portalu Dziedzictwo Muzyki Polskiej w otwartym dostępie}
!!!IIIF:
!!!ONB-nifc:
!!!AIN: 2 piano 1 vox
!!!key: G
**kern	**kern	**dynam	**kern	**text	**dynam
*part3	*part2	*	*part1	*	*
*staff3	*staff2	*	*staff1	*	*
*I"Piano	*I"Fortepian.	*	*I"Śpiew.	*	*
*	*I'pf	*	*I'voce umana	*	*
*Ipiano	*Ipiano	*	*Ivox	*	*
*ICvox	*ICvox	*	*ICvox	*	*
*clefF4	*clefG2	*	*clefG2	*	*
*k[f#]	*k[f#]	*	*k[f#]	*	*
*G:	*G:	*	*G:	*	*
*M3/4	*M3/4	*	*M3/4	*	*
=1	=1	=1	=1	=1	=1
!	!	!	!LO:TX:a:B:t=Andantino	!	!
!	!	!	!LO:TX:a:B:t=Andantino cantabile.	!	!
[2.EEE/ [2.EE	(8G/L	p	2.r	.	.
.	8A#X/J	.	.	.	.
.	8G/L 8B	.	.	.	.
.	8e/J	<	.	.	.
.	8A#/L 8d#X	.	.	.	.
.	8f#/J	[[	.	.	.
=2	=2	=2	=2	=2	=2
*	*^	*	*	*	*
4EEE/] 4EE]	(8B/L) 8g	4ryy	.	2.r	.	.
.	8b/J	.	.	.	.	.
2E\ 2B	4.ee^^/	2g\	.	.	.	.
.	8cc/)	.	.	.	.	.
=3	=3	=3	=3	=3	=3	=3
2GG/ 2E	(8b/L	2B\	.	2.r	.	.
.	8a#X/	.	.	.	.	.
.	8g/	.	.	.	.	.
.	8an/J)	.	.	.	.	.
4AA/ 4E	(8g/L	4c\	>	.	.	.
.	8f#/J)	.	.	.	.	.
*	*v	*v	*	*	*	*
=4	=4	=4	=4	=4	=4
!	!LO:TX:b:i:t=rallent.	!	!	!	!
4r	(8e/L	]	2.r;	.	.
.	8d#X/J	.	.	.	.
(8BB\L	4B/)	.	.	.	.
8F#\J)	.	.	.	.	.
4BB;:\ 4F#: 4A:	4B;:/ 4d#: 4b:	.	.	.	.
!LO:LB:g=original	!LO:LB:g=original	!	!LO:LB:g=original	!	!
=5	=5	=5	=5	=5	=5
*	*^	*	*	*	*
!	!	!	!	!LO:TX:a:i:t=espress.	!	!
4EE/ 4E	(8G/L	4ryy	p	8b\	Oj!	.
.	8B/J)	.	.	8a/	na	.
2EE/ 2BB	(4.e/	2G\	.	4.cc\	po-	.
.	8dn/)	.	.	8b\	-lu	.
=6	=6	=6	=6	=6	=6	=6
4EE/ 4BB	(8c/L	4G\	.	8a/	na	.
.	8B/J)	.	.	8g/	zie-	.
2EE/ 2BB	2B/	2G/	.	4f#/	-lo-	.
.	.	.	.	4e/	-nem	.
=7	=7	=7	=7	=7	=7	=7
4EE/ 4BB	(8F#/L	4ryy	.	8d#X/	Bia-	.
.	8A/J)	.	.	8e/	-łe	.
2EE/ 2BB	(4.d#X/	2F#\	.	4.f#/	mgły	.
.	8c/)	.	.	8d#/	się	.
=8	=8	=8	=8	=8	=8	=8
2EE/ 2BB	(8c/L	4G\	.	8e/L	ście-	.
.	8B/J)	.	.	8g/J	.	.
!	!	!	!	!	!	!LO:DY:a
.	2e/	2G/	<	2b/	-lą,	<[
4EE/ 4E	.	.	.	.	.	.
!LO:LB:g=original	!LO:LB:g=original	!	!LO:LB:g=original	!	!	!
=9	=9	=9	=9	=9	=9	=9
!	!	!	!	!	!	!LO:DY:a
2AA/ 2E	(4e/	2c\	[ mf	8cc\	Chóc	mf
.	.	.	.	8dd\	mię	.
.	8f#/L	.	.	4.ee\	bied-	.
.	8e/J)	.	.	.	.	.
4AA/ 4E	4a/	4c/	.	.	.	.
.	.	.	.	8cc\	-ną	.
=10	=10	=10	=10	=10	=10	=10
2GG/ 2E	(4e/	2B\	>	8b/	ser-	.
.	.	.	.	8a/	-ce	.
.	8d#X/L	.	.	4g/	bo-	.
.	8e/J)	.	.	.	.	.
4GG/ 4E	4B/	4ryy	]	4f#/	-li,	.
*	*v	*v	*	*	*	*
=11	=11	=11	=11	=11	=11
*^	*	*	*	*	*
(4E/	2FF#\	2A#X/ 2e	p	8e/	Lu-	.
.	.	.	.	8f#/	-dzie	.
8C#X/L	.	.	.	4.g/	się	.
8D#X/	.	.	.	.	.	.
8E/)	8FF#\	4A#/ 4e	.	.	.	.
8G/J	8r	.	.	8e/	we-	.
*v	*v	*	*	*	*	*
=12	=12	=12	=12	=12	=12
4BB\ 4F#	2B/ 2d#X	.	(8f#/L	-se-	.
.	.	.	8g/J)	.	.
(8C/L	.	.	2f#/	-lą,	.
8BB/J	.	.	.	.	.
4AA/)	4F#/ 4B 4d#	.	.	.	.
=13	=13	=13	=13	=13	=13
*	*^	*	*	*	*
2GG#X/ 2E	2dn/ 2e	(4B\	<	8e/	Choć	.
.	.	.	.	8f#/	mię	.
.	.	8c\L	.	4g#X/	bied-	.
.	.	8B\J)	[	.	.	.
4EE/ 4E	4d/ 4e	4G#X\	.	4b/	-ną	.
!LO:LB:g=original	!LO:LB:g=original	!	!LO:LB:g=original	!	!	!
=14	=14	=14	=14	=14	=14	=14
*^	*	*	*	*	*	*
(4E/	2AA\	2c/ 2e	2A/	.	8dd\	ser-	.
.	.	.	.	.	8cc\	-ce	.
8Fn/L	.	.	.	.	(8dd\L	bo-	.
8E/J)	.	.	.	.	8cc\J)	.	.
4C/	4CC/	(8e/L	4A\	.	(8b/L	-li,	.
.	.	8f#X/J)	.	.	8a/J)	.	.
*v	*v	*	*	*	*	*	*
*	*v	*v	*	*	*	*
=15	=15	=15	=15	=15	=15
2BBB/ 2BB	(8B/L 8e 8g	>	8g/	Lu-	.
.	8A/J 8c 8fn	.	8a/	-dzie	.
.	2G/) 2B 2e	]]	4.b/	się	.
(8C/L	.	.	.	.	.
8BB/J)	.	.	8e/	we-	.
=16	=16	=16	=16	=16	=16
(4BB/	4A/ 4d#X	.	(8g/L	-se-	.
.	.	.	8f#/J)	.	.
[2EE/)	(8G/L 8e	.	4e/	-lą.	.
.	8A#X/J	.	.	.	.
.	8G/L 8B	.	4r	.	.
.	8e/J	.	.	.	.
=17	=17	=17	=17	=17	=17
2EE/]	8An/L 8d#X	<	2.r	.	.
.	8f#/J	.	.	.	.
.	8B/L 8g	.	.	.	.
.	8b/J)	.	.	.	.
4E^^\ 4B	4g^^\ 4ee	[	.	.	.
=18	=18	=18	=18	=18	=18
4r	(8g/L	.	2.r	.	.
.	8a/J)	>	.	.	.
(4C\ 4G	(4e/ 4b	.	.	.	.
4D\) 4F#	4c/) 4a	]	.	.	.
!LO:PB:g=original	!LO:PB:g=original	!	!LO:PB:g=original	!	!
=19||	=19||	=19||	=19||	=19||	=19||
!	!	!	!LO:TX:a:B:t=Poco animato.	!	!
2.GG/ 2.G	(8B/L 8g	p	8b\	Że-	.
.	8f#/	.	8b\	-by	.
.	8c/ 8e	.	2cc\	też	.
.	8g/	.	.	.	.
.	8A/ 8e-X	.	.	.	.
.	8f#/J)	.	.	.	.
=20	=20	=20	=20	=20	=20
*	*^	*	*	*	*
2GG/ 2D	(8d/L	2B\	.	8b\	te	.
.	8en/	.	.	8a/	o-	.
.	8g/	.	.	4g/	-błocz-	.
.	8e/	.	.	.	.	.
4GG/ 4G	8d/	4B\	.	8f#/	-ki	.
.	8e/J)	.	.	8e/	Na	.
*	*v	*v	*	*	*	*
=21	=21	=21	=21	=21	=21
2.DD/ 2.D	(8A/L 8f#	.	(8f#/L	nie-	.
.	8d/	.	8a/J)	.	.
.	8B/ 8g	.	4g/	-bie	.
.	8d/	.	.	.	.
.	8G/ 8e	.	4e/	za-	.
.	8c#X/J)	.	.	.	.
=22	=22	=22	=22	=22	=22
2DD/ 2D	(8A/L 8f#	.	(8f#/L	-wró-	.
.	8G/J 8e	.	8a/J)	.	.
.	8F#/L) 8d	<	2d/	-cić,	.
.	(8e/	.	.	.	.
4r	8f#/	.	.	.	.
.	8e/J) 8ccn	[[	.	.	.
!LO:LB:g=original	!LO:LB:g=original	!	!LO:LB:g=original	!	!
=23	=23	=23	=23	=23	=23
!	!	!	!	!	!LO:DY:a
[2.GG/ [2.G	(8d/L 8b	mf	8b\	To	f
.	8g/	.	8b\	bym	.
.	8c/ 8e	.	4.dd\	mog-	.
.	8g/	.	.	.	.
.	8c/ 8f#	.	.	.	.
.	8a/J)	.	8cc\	-ła	.
=24	=24	=24	=24	=24	=24
4GG/] 4G]	(8B/L 8d	.	(8b/L	się	.
.	8f#/	.	8a/J)	.	.
(4BBB/ 4BB	8d/ 8g	.	4g/	z lu-	.
.	8G/	.	.	.	.
4AAA/) 4AA	8c#X/ 8e	.	8e/	-bym	.
.	8G/J)	.	8f#/	We-	.
=25	=25	=25	=25	=25	=25
2.DD/ 2.D	(8cn/L 8e	.	(8e/L	-se-	.
.	8F#/ 8d	.	8d/J)	.	.
.	8c/ 8e	.	4cc\	-lić	.
.	8G/	.	.	.	.
.	8c/ 8f#	.	(8b/L	i	.
.	8A/J)	.	8a/J)	.	.
=26	=26	=26	=26	=26	=26
!	!	!	!	!	!LO:DY:a
2GG/ 2D	(8d/L 8f#	>	(8b/L	smu-	>
.	8c/	.	8a/J)	.	.
.	8B/ 8g	.	4g/	-cić	.
.	8d/	.	.	.	.
4r	8g/	.	4r	.	]
.	8a/J)	]]	.	.	.
!LO:LB:g=original	!LO:LB:g=original	!	!LO:LB:g=original	!	!
=27||	=27||	=27||	=27||	=27||	=27||
!	!	!	!LO:TX:a:B:t=Tempo I.	!	!
4BB/	4d#X/ 4f#	p	8b\	Lecz	.
.	.	.	8a/	o-	.
4C/	4A/ 4e 4f#	.	4.f#/	-błocz-	.
4r	4r	.	.	.	.
.	.	.	8g/	-ki	.
=28	=28	=28	=28	=28	=28
2.BB/	(8d#X/L 8f#	.	8a/	z wia-	.
.	8B/	.	8g/	-trem	.
.	8e/ 8a	.	4a/	pły-	.
.	8c/	.	.	.	.
.	8d#/ 8f#	.	4b\	-ną	.
.	8B/J)	.	.	.	.
=29	=29	=29	=29	=29	=29
2.FF#/	(8e/L 8a	.	8cc\	I	.
.	8c/	<	8a/	w od-	.
.	8a/ 8cc	.	4.ee\	-da-	.
.	8e/	[	.	.	.
.	8c/ 8a	.	.	.	.
.	8e/J)	.	8dd#X\	-li	.
=30	=30	=30	=30	=30	=30
2BB/	(8d#X/L 8f#	.	(8cc\L	gi-	.
.	8B/	>	8b\J)	.	.
.	8c/ 8d#	.	2f#/	-ną,	.
.	8B/J	.	.	.	.
4r	8F#/)	]	.	.	.
.	8r	.	.	.	.
!LO:LB:g=original	!LO:LB:g=original	!	!LO:LB:g=original	!	!
=31	=31	=31	=31	=31	=31
2.AA/	8r	.	8g/	A	.
.	(8c/	.	8a/	ja	.
.	8B/L	.	4.b\	sto-	.
.	8d#X/J	.	.	.	.
.	4f#/)	.	.	.	.
.	.	.	8b\	-ję	.
=32	=32	=32	=32	=32	=32
2.GG/	8r	.	8cc\	smut-	.
.	(8e/	.	8b\	-na	.
.	8B/L	.	4e/	bied-	.
.	8c/J	.	.	.	.
.	4B/)	.	4e/	-na	.
=33	=33	=33	=33	=33	=33
2CC/ 2C	8r	.	8d#X/	Sto-	.
.	(8A/	.	8e/	-ję	.
.	4A/) 4e	.	(8f#/L	sa-	.
.	.	.	8e/J)	.	.
4r	4r	.	(8a/L	-ma	.
.	.	.	8g/J)	.	.
=34	=34	=34	=34	=34	=34
[2.BB/	4r	p	(8f#/L	jed-	.
.	.	.	8b/J)	.	.
.	(8d#X/L	.	4b\	-na.	.
.	8B/	.	.	.	.
.	8c/	.	4r	.	.
.	8e/J	.	.	.	.
!LO:LB:g=original	!LO:LB:g=original	!	!LO:LB:g=original	!	!
=35	=35	=35	=35	=35	=35
2.BB/_	8g/L	.	[2.b\	Ach!	.
.	8e/	<	.	.	.
.	8f#/	.	.	.	.
.	8d#X/	.	.	.	.
.	8e/	.	.	.	.
.	8g/J)	[[	.	.	.
=36	=36	=36	=36	=36	=36
4BB/]	(8b/L	.	2.b\_	.	.
.	8a/	.	.	.	.
4r	8f#/	.	.	.	.
.	8a/	.	.	.	.
4r	8f#/	.	.	.	.
.	8e/J	.	.	.	.
=37	=37	=37	=37	=37	=37
!	!	!	!	!	!LO:DY:a
2.r	8d#X/L	.	2.b\]	.	<[
.	8f#/	>	.	.	.
.	8d#/	.	.	.	.
.	8c/	.	.	.	.
.	8B/	.	.	.	.
.	8A/J)	]]	.	.	.
=38	=38	=38	=38	=38	=38
!	!	!	!	!	!LO:DY:a
2.EE/ 2.BB	(8G/L	p	8b\	Oj!	mf
.	8B/	.	8a/	na	.
.	8e/	.	4.cc\	po-	.
.	8B/J	.	.	.	.
.	4G/)	.	.	.	.
.	.	.	8b\	-lu	.
=39	=39	=39	=39	=39	=39
2.EE/ 2.BB	(8G/L	.	8a/	na	.
.	8B/	.	8g/	zie-	.
.	8e/	.	4f#/	-lo-	.
.	8B/J	.	.	.	.
.	4G/)	.	4e/	-nem	.
!LO:LB:g=original	!LO:LB:g=original	!	!LO:LB:g=original	!	!
=40	=40	=40	=40	=40	=40
*^	*	*	*	*	*
(8A/L	2.E\	(8b/L	<	8d#X/	Bia-	.
8B/	.	8a/J	[	8e/	-łe	.
8d#X/	.	4.cc\	.	4f#/	mgły	.
8B/J	.	.	.	.	.	.
4A/)	.	.	.	4d#/	się	.
.	.	8b\	.	.	.	.
=41	=41	=41	=41	=41	=41	=41
(8G/L	2.E\	8a/L	.	(8e/L	ście-	.
8B/	.	8g/J	.	8g/J)	.	.
!	!	!	!	!	!	!LO:DY:a
8e/	.	4f#/	.	2b\	-lą,	<[
8B/J	.	.	.	.	.	.
4G/)	.	4e/)	.	.	.	.
*v	*v	*	*	*	*	*
=42	=42	=42	=42	=42	=42
!	!	!	!	!	!LO:DY:a
(8AA\L	(8a/L	mf	8cc\	Choć	f
8E\	8b/J	.	8dd\	mię	.
8A\	4cc\	.	4.ee\	bied-	.
8B\J	.	.	.	.	.
4c\)	4a/)	.	.	.	.
.	.	.	8cc\	-ną	.
=43	=43	=43	=43	=43	=43
(8GG\L	(8b/L	.	8b\	ser-	.
8E\	8e/J	.	8a/	-ce	.
8B\	2ee\)	.	4g/	bo-	.
8E\J	.	.	.	.	.
4B\)	.	.	4f#/	-li	.
!LO:LB:g=original	!LO:LB:g=original	!	!LO:LB:g=original	!	!
=44	=44	=44	=44	=44	=44
(8FF#/L	4e/ 4a#X	.	8e/	Lu-	.
8E/J	.	.	8f#/	-dzie	.
2A#X\)	2e^^/ 2g	.	4.g/	się	.
.	.	.	8e/	we-	.
=45	=45	=45	=45	=45	=45
(8BB\L	(8d#X/L 8f#	.	(8f#/L	-se-	.
8F#\J	8c/J 8e	.	8g/J)	.	.
4B\)	8d#/L) 8f#	.	2f#/	-lą	.
.	8b/	.	.	.	.
4r	8f#/	.	.	.	.
.	8d#/J	.	.	.	.
=46	=46	=46	=46	=46	=46
(8GG#X/L	(8e/L	.	8e/	Choć	.
8E/J	8dn/	.	8f#/	mię	.
4GG#/)	8c/	.	4g#X/	bied-	.
.	8B/J)	.	.	.	.
4EE/ 4E	4G#X/ 4d	.	4b\	-ną	.
=47	=47	=47	=47	=47	=47
4AA/ 4E	(8A/L 8c	.	8dd\	ser-	.
.	8e/J	.	8cc\	-ce	.
4r	4a/)	.	(8ee\L	bo-	.
.	.	.	8cc\J)	.	.
4r	4r	.	(8b/L	-li,	.
.	.	.	8a/J)	.	.
!LO:LB:g=original	!LO:LB:g=original	!	!LO:LB:g=original	!	!
=48	=48	=48	=48	=48	=48
!	!	!	!	!	!LO:DY:a
4BB/	(8G/L	.	8g/	Lu-	>
.	8B/J	.	8a/	-dzie	.
4r	4e/)	.	4.b/	się	.
4r	4r	.	.	.	.
.	.	.	8e/	we-	]
=49	=49	=49	=49	=49	=49
4r	4r	.	(2.a/	-se-	.
(4BB/	2B/ 2e 2g	p	.	.	.
4EE/)	.	.	.	.	.
=50	=50	=50	=50	=50	=50
(8FFn/L	(8A/L 8fn	.	2.fn/)	.	.
8GG/J	8c/	.	.	.	.
4AA/	8f/	.	.	.	.
.	8c/	.	.	.	.
4BB/)	8d/ 8f	.	.	.	.
.	8A/J)	.	.	.	.
=51	=51	=51	=51	=51	=51
!	!LO:TX:b:i:t=rallent.	!	!	!	!
(8E/L	4G/ 4B 4e	>	[2.e/	-lą.	.
8BB/J)	.	.	.	.	.
((8qD/	.	.	.	.	.
8C/L)	4r	.	.	.	.
8BB/	.	.	.	.	.
8GG/	4G/ 4B 4e	]	.	.	.
8BB/J)	.	.	.	.	.
=52	=52	=52	=52	=52	=52
4EE/	4G/ 4B 4e	pp	2e/]	.	.
4EE;:/ 4BB: 4E:	4G;:/ 4B: 4e:	.	.	.	.
4r	4r	.	4r;	.	.
==	==	==	==	==	==
*-	*-	*-	*-	*-	*-
!!!system-decoration: s1[(s2,s3)]
!!!ENC: Filip Voros
!!!END: 2022-07-31
!!!ENC: Julita Ruszuk
!!!END: 2022-09-02
